svg/fluentui-system-icons/ic_fluent_person_link_20_regular.svg

<svg width="20" height="20" viewBox="0 0 20 20" fill="none" xmlns="http://www.w3.org/2000/svg">
<path d="M9 2C6.79086 2 5 3.79086 5 6C5 8.20914 6.79086 10 9 10C11.2091 10 13 8.20914 13 6C13 3.79086 11.2091 2 9 2ZM6 6C6 4.34315 7.34315 3 9 3C10.6569 3 12 4.34315 12 6C12 7.65685 10.6569 9 9 9C7.34315 9 6 7.65685 6 6ZM4.00873 11C2.90315 11 2 11.8869 2 13C2 14.6912 2.83281 15.9663 4.13499 16.7966C5.41697 17.614 7.14526 18 9 18C9.11209 18 9.22372 17.9986 9.33481 17.9958C9.18821 17.6861 9.08571 17.3514 9.03544 17L9 17C7.26489 17 5.74318 16.636 4.67262 15.9534C3.62226 15.2837 3 14.3088 3 13C3 12.4467 3.44786 12 4.00873 12L14 12C14.5522 12 15 12.4478 15 13H16C16 11.8956 15.1045 11 14 11L4.00873 11ZM12.5 14C11.1193 14 10 15.1193 10 16.5C10 17.8807 11.1193 19 12.5 19H13C13.2761 19 13.5 18.7761 13.5 18.5C13.5 18.2239 13.2761 18 13 18H12.5C11.6716 18 11 17.3284 11 16.5C11 15.6716 11.6716 15 12.5 15H13C13.2761 15 13.5 14.7761 13.5 14.5C13.5 14.2239 13.2761 14 13 14H12.5ZM16 14C15.7239 14 15.5 14.2239 15.5 14.5C15.5 14.7761 15.7239 15 16 15H16.5C17.3284 15 18 15.6716 18 16.5C18 17.3284 17.3284 18 16.5 18H16C15.7239 18 15.5 18.2239 15.5 18.5C15.5 18.7761 15.7239 19 16 19H16.5C17.8807 19 19 17.8807 19 16.5C19 15.1193 17.8807 14 16.5 14H16ZM12 16.5C12 16.2239 12.2239 16 12.5 16H16.5C16.7761 16 17 16.2239 17 16.5C17 16.7761 16.7761 17 16.5 17H12.5C12.2239 17 12 16.7761 12 16.5Z" fill="#212121"/>
</svg>

<svg xmlns="http://www.w3.org/2000/svg" width="20" height="20"><path d="M9 2a4 4 0 1 0 0 8 4 4 0 0 0 0-8ZM6 6a3 3 0 1 1 6 0 3 3 0 0 1-6 0Zm-1.991 5A2.001 2.001 0 0 0 2 13c0 1.691.833 2.966 2.135 3.797C5.417 17.614 7.145 18 9 18c.112 0 .224-.001.335-.004a3.476 3.476 0 0 1-.3-.996H9c-1.735 0-3.257-.364-4.327-1.047C3.623 15.283 3 14.31 3 13c0-.553.448-1 1.009-1H14a1 1 0 0 1 1 1h1a2 2 0 0 0-2-2H4.009Zm8.491 3a2.5 2.5 0 0 0 0 5h.5a.5.5 0 0 0 0-1h-.5a1.5 1.5 0 0 1 0-3h.5a.5.5 0 0 0 0-1h-.5Zm3.5 0a.5.5 0 0 0 0 1h.5a1.5 1.5 0 0 1 0 3H16a.5.5 0 0 0 0 1h.5a2.5 2.5 0 0 0 0-5H16Zm-4 2.5a.5.5 0 0 1 .5-.5h4a.5.5 0 0 1 0 1h-4a.5.5 0 0 1-.5-.5Z"/></svg>
